X:0971
T:Louis's Adieu.
M:C
L:1/8
Q:1/4=100
N:bar 7 is printed as |(Bc//d3///) d2 (e/d/c/d/) (c/B/A/G/)|
N: (F2         E2)    z2A
N:initial rest added to second part
I: :: ||
Z:Jack Campin * www.campin.me.uk * 2009
K:D
A2|A2        (F>G)    A3            (B/c/)         | d3   (c/B/) (B2    A2) |\
   D2         EF     (G2         F2)               | dB   AF     (F2    E2) |
  (F>G)``````(F>A)   (Bd)```````(FA)               |(d<f)`af      d2    zA  |\
  (B3/c//d//) d2     (e/d/c/d/) (c/B/A/G/)         | F2   E2      D2       :|
z2|B3         (c/d/) (ec)```````(dB)               | A2  (df)    (e>c) (A>F)|\
   D2         zD     F<A`````````A<d               | d2  (cB)    (BA)``(GF) |
  (F2         E2)    z2          A2                | A2  (F>G)   (A3B/c/)   |\
   d2        (cB)   (B2          A2)               | D2   EF     (G2    F2) |
   df`````````ge     c2          A2                | Be```Ac      d2    cB  |\
   AF`````````AF    (AB/c/)    (Hd2{e}) ({fedcBAG})| F2   E2      D2       |]
<end>
<start>
